build/images/icons/tarifs/tarif_3.svg

<svg width="65" height="65" viewBox="0 0 65 65" fill="none" xmlns="http://www.w3.org/2000/svg">
<g clip-path="url(#clip0)">
<path d="M19.5 0C14.1234 0 9.75 4.37341 9.75 9.75C9.75 15.1266 14.1246 19.5 19.5 19.5C24.8766 19.5 29.25 15.1266 29.25 9.75C29.25 4.37341 24.8766 0 19.5 0ZM19.5 16.25C15.9099 16.25 13 13.3401 13 9.75C13 6.15989 15.9099 3.25 19.5 3.25C23.0901 3.25 26 6.15989 26 9.75C26 13.3401 23.0902 16.25 19.5 16.25Z" fill="#0034FF"/>
<path d="M28.5019 43.875H24.1707L22.7494 61.75H16.2494L14.828 43.875H9.74937L12.9994 26H17.8755V35.8865C17.8755 36.7845 18.6025 37.5115 19.5005 37.5115C20.3986 37.5115 21.1255 36.7845 21.1255 35.8865V26H23.043C23.2315 24.8809 23.5154 23.7965 23.8869 22.75H12.9994C11.4286 22.75 10.083 23.8734 9.80244 25.4193L6.55244 43.2943C6.38017 44.2423 6.63699 45.2183 7.25449 45.9582C7.87199 46.6981 8.78631 47.1249 9.74937 47.1249H11.8261L13.0102 62.0077C13.1445 63.6966 14.5539 64.9999 16.2494 64.9999H22.7494C24.4448 64.9999 25.8553 63.6966 25.9896 62.0077L27.1725 47.1249H29.2492C29.5558 47.1249 29.8375 47.0133 30.1256 46.9299C29.7229 45.8055 29.1714 44.8533 28.5019 43.875Z" fill="#0034FF"/>
<path d="M42.25 13C33.2898 13 26 20.2898 26 29.25C26 34.8249 28.2533 37.9471 30.2401 40.7008C32.3244 43.589 34.125 46.0839 34.125 52V61.75C34.125 63.5451 35.5799 65 37.375 65H47.125C48.9201 65 50.375 63.5451 50.375 61.75V52C50.375 46.0839 52.1754 43.589 54.2598 40.7008C56.2477 37.9469 58.5 34.8248 58.5 29.25C58.5 20.2898 51.2104 13 42.25 13ZM47.125 61.75H37.375C37.375 61.75 37.375 57.0332 37.375 53.625H47.125C47.125 57.0332 47.125 61.75 47.125 61.75ZM47.19 50.375H43.875V36.4227L49.8994 30.3983C50.5343 29.7634 50.5343 28.7353 49.8994 28.1006C49.2645 27.4658 48.2365 27.4657 47.6017 28.1006L42.25 33.4523L36.8994 28.1017C36.2647 27.4668 35.2365 27.4668 34.6017 28.1017C33.9669 28.7366 33.9668 29.7647 34.6017 30.3994L40.6261 36.4239V50.375H37.3111C36.6525 39.0108 29.25 38.5677 29.25 29.25C29.25 22.0708 35.0697 16.25 42.25 16.25C49.4303 16.25 55.25 22.0708 55.25 29.25C55.25 38.5677 47.8476 39.0108 47.19 50.375Z" fill="#0034FF"/>
</g>
<defs>
<clipPath id="clip0">
<rect width="65" height="65" fill="white"/>
</clipPath>
</defs>
</svg>

<svg width="65" height="65" fill="none" xmlns="http://www.w3.org/2000/svg"><g clip-path="url(#clip0)" fill="#0034FF"><path d="M19.5 0c-5.377 0-9.75 4.373-9.75 9.75s4.375 9.75 9.75 9.75c5.377 0 9.75-4.373 9.75-9.75S24.877 0 19.5 0zm0 16.25a6.5 6.5 0 110-13 6.5 6.5 0 010 13zm9.002 27.625H24.17L22.749 61.75h-6.5l-1.421-17.875H9.749L13 26h4.876v9.886a1.624 1.624 0 103.25 0V26h1.918c.189-1.12.472-2.203.844-3.25H12.999a3.249 3.249 0 00-3.197 2.67l-3.25 17.874a3.25 3.25 0 003.197 3.83h2.077l1.184 14.884A3.25 3.25 0 0016.25 65h6.5a3.25 3.25 0 003.24-2.992l1.183-14.883h2.076c.307 0 .588-.112.877-.195-.403-1.124-.955-2.077-1.624-3.055z"/><path d="M42.25 13C33.29 13 26 20.29 26 29.25c0 5.575 2.253 8.697 4.24 11.45 2.084 2.889 3.885 5.384 3.885 11.3v9.75a3.25 3.25 0 003.25 3.25h9.75a3.25 3.25 0 003.25-3.25V52c0-5.916 1.8-8.411 3.885-11.3 1.988-2.753 4.24-5.875 4.24-11.45C58.5 20.29 51.21 13 42.25 13zm4.875 48.75h-9.75v-8.125h9.75v8.125zm.065-11.375h-3.315V36.423l6.024-6.025a1.624 1.624 0 10-2.297-2.297l-5.352 5.351-5.35-5.35a1.624 1.624 0 10-2.298 2.297l6.024 6.025v13.951h-3.315c-.658-11.364-8.061-11.807-8.061-21.125 0-7.18 5.82-13 13-13s13 5.82 13 13c0 9.318-7.402 9.76-8.06 21.125z"/></g><defs><clipPath id="clip0"><path fill="#fff" d="M0 0h65v65H0z"/></clipPath></defs></svg>
